src/assets/images/LogoInverse.svg

<svg fill="none" height="50" viewBox="0 0 322 100" width="161" xmlns="http://www.w3.org/2000/svg"><g fill="#fff"><path clip-rule="evenodd" d="m48.1066 81.3333c.4574 0 .9122-.0109 1.3642-.0326l.0011 5.433c3.0223.6788 5.2784 3.3536 5.2784 6.5499 0 3.7094-3.0386 6.7164-6.7869 6.7164-3.7484 0-6.787-3.007-6.787-6.7164 0-3.1963 2.2562-5.8711 5.2785-6.5499l.0003-5.4483c.5464.0318 1.097.0479 1.6514.0479zm-12.6091-2.9929-2.7732 4.8025c1.2145 1.411 1.4756 3.4768.5008 5.1651-1.2364 2.1417-3.9931 2.8649-6.1572 1.6155-2.1641-1.2495-2.9161-3.9985-1.6797-6.1401.9748-1.6883 2.8944-2.4952 4.7236-2.1489l2.7698-4.7983c.8418.5465 1.7149 1.0489 2.6159 1.5042zm-10.6936-9.4781-7.8677 4.5422c.9233 2.9568-.2651 6.2482-3.0332 7.8463-3.2124 1.8547-7.33585.7267-9.21002-2.5195-1.87416-3.2461-.7893-7.3811 2.42311-9.2358 2.76809-1.5982 6.21261-.9817 8.31161 1.2963l7.8372-4.5273c.4671.8955.9812 1.7625 1.539 2.5978zm-14.1411-19.6556c1.9496 0 3.6081 1.259 4.2228 3.0163l5.2426.0006c-.0144.3681-.0216.7381-.0216 1.1097 0 .6407.0215 1.2763.0638 1.9062l-5.2848.0002c-.6147 1.7573-2.2732 3.0163-4.2228 3.0163-2.47287 0-4.47757-2.0258-4.47757-4.5247 0-2.4988 2.0047-4.5246 4.47757-4.5246zm-.5341-23.7411c2.7681 1.5982 3.9565 4.8895 3.0332 7.8463l10.6261 6.1335c-.4989.8718-.9523 1.7729-1.3569 2.7002l-10.7777-6.221c-2.09902 2.278-5.54358 2.8945-8.31166 1.2964-3.212413-1.8547-4.297277-5.9898-2.423112-9.2359 1.874162-3.2462 5.997652-4.3742 9.210072-2.5195zm58.7302-7.9264c2.1641 1.2495 2.9161 3.9985 1.6796 6.1401-.9747 1.6883-2.8943 2.4952-4.7235 2.1489l-2.3578 4.0843c-.8391-.5511-1.7096-1.0583-2.6082-1.5183l2.3534-4.0744c-1.2145-1.411-1.4755-3.4768-.5008-5.1652 1.2365-2.1416 3.9932-2.8648 6.1573-1.6154zm-34.1239 3.1091c1.0068 1.7437.6953 3.8902-.6234 5.3019l1.3753 2.3815c-.9006.4555-1.7732.9582-2.6147 1.5048l-1.4345-2.4838c-1.7727.2604-3.5974-.548-4.5396-2.1798-1.2364-2.1416-.4844-4.8906 1.6797-6.1401 2.1641-1.2494 4.9208-.5262 6.1572 1.6155zm13.2284-20.6483c3.7483 0 6.7869 3.00704 6.7869 6.71642 0 3.1963-2.2561 5.87108-5.2784 6.54988l-.0011 12.0997c-.452-.0217-.9068-.0327-1.3642-.0327-.5544 0-1.105.0161-1.6514.0479l-.0003-12.1149c-3.0223-.6788-5.2785-3.35358-5.2785-6.54988 0-3.70938 3.0386-6.71642 6.787-6.71642z" fill-rule="evenodd"/><path d="m54.8799 43.0173c-.864-1.032-1.884-1.836-3.06-2.412-1.152-.6-2.316-.9-3.492-.9-1.416 0-2.712.348-3.888 1.044s-2.1 1.644-2.772 2.844-1.008 2.532-1.008 3.996.336 2.808 1.008 4.032c.672 1.2 1.596 2.16 2.772 2.88 1.176.696 2.472 1.044 3.888 1.044 1.128 0 2.268-.264 3.42-.792 1.176-.552 2.22-1.284 3.132-2.196l3.348 3.636c-1.344 1.392-2.928 2.496-4.752 3.312-1.8.816-3.612 1.224-5.436 1.224-2.472 0-4.716-.564-6.732-1.692-2.016-1.152-3.6-2.724-4.752-4.716s-1.728-4.212-1.728-6.66c0-2.424.588-4.62 1.764-6.588s2.784-3.516 4.824-4.644c2.064-1.128 4.344-1.692 6.84-1.692 1.824 0 3.624.384 5.4 1.152 1.776.744 3.288 1.764 4.536 3.06zm18.0231-8.28c2.52 0 4.812.564 6.876 1.692s3.684 2.688 4.86 4.68c1.2 1.968 1.8 4.164 1.8 6.588s-.6 4.632-1.8 6.624c-1.176 1.992-2.796 3.564-4.86 4.716-2.064 1.128-4.356 1.692-6.876 1.692s-4.812-.564-6.876-1.692c-2.064-1.152-3.696-2.712-4.896-4.68-1.176-1.992-1.764-4.212-1.764-6.66 0-2.424.588-4.62 1.764-6.588 1.2-1.992 2.82-3.552 4.86-4.68 2.064-1.128 4.368-1.692 6.912-1.692zm.072 4.968c-1.392 0-2.688.36-3.888 1.08-1.2.696-2.148 1.656-2.844 2.88s-1.044 2.568-1.044 4.032c0 1.488.348 2.844 1.044 4.068.72 1.224 1.668 2.196 2.844 2.916 1.2.72 2.496 1.08 3.888 1.08s2.664-.348 3.816-1.044c1.176-.72 2.1-1.692 2.772-2.916.696-1.248 1.044-2.616 1.044-4.104 0-1.464-.348-2.808-1.044-4.032-.672-1.224-1.596-2.184-2.772-2.88-1.152-.72-2.424-1.08-3.816-1.08zm32.676 20.628-3.996-7.2h-.54-5.2561v7.2h-5.688v-25.2h10.9441c3.288 0 5.832.768 7.632 2.304 1.8 1.512 2.7 3.66 2.7 6.444 0 1.944-.408 3.612-1.224 5.004-.792 1.368-1.956 2.412-3.492 3.132l5.364 8.316zm-9.7921-11.952h5.2561c1.584 0 2.796-.36 3.636-1.08.864-.744 1.296-1.824 1.296-3.24 0-1.392-.432-2.436-1.296-3.132-.84-.72-2.052-1.08-3.636-1.08h-5.2561zm32.0991-13.644c2.52 0 4.812.564 6.876 1.692s3.684 2.688 4.86 4.68c1.2 1.968 1.8 4.164 1.8 6.588s-.6 4.632-1.8 6.624c-1.176 1.992-2.796 3.564-4.86 4.716-2.064 1.128-4.356 1.692-6.876 1.692s-4.812-.564-6.876-1.692c-2.064-1.152-3.696-2.712-4.896-4.68-1.176-1.992-1.764-4.212-1.764-6.66 0-2.424.588-4.62 1.764-6.588 1.2-1.992 2.82-3.552 4.86-4.68 2.064-1.128 4.368-1.692 6.912-1.692zm.072 4.968c-1.392 0-2.688.36-3.888 1.08-1.2.696-2.148 1.656-2.844 2.88s-1.044 2.568-1.044 4.032c0 1.488.348 2.844 1.044 4.068.72 1.224 1.668 2.196 2.844 2.916 1.2.72 2.496 1.08 3.888 1.08s2.664-.348 3.816-1.044c1.176-.72 2.1-1.692 2.772-2.916.696-1.248 1.044-2.616 1.044-4.104 0-1.464-.348-2.808-1.044-4.032-.672-1.224-1.596-2.184-2.772-2.88-1.152-.72-2.424-1.08-3.816-1.08zm34.62-4.572h5.4v25.2h-5.184l-12.204-16.2v16.2h-5.436v-25.2h5.184l12.24 16.272zm29.559 25.2-1.98-4.896h-11.664l-1.98 4.896h-5.868l10.944-25.2h5.868l10.764 25.2zm-11.772-9.468h7.956l-3.96-9.792z"/><path d="m198.429 35.1333h21.06v4.824h-7.704v20.376h-5.688v-20.376h-7.668zm39.585 25.2-3.996-7.2h-.54-5.256v7.2h-5.688v-25.2h10.944c3.288 0 5.832.768 7.632 2.304 1.8 1.512 2.7 3.66 2.7 6.444 0 1.944-.408 3.612-1.224 5.004-.792 1.368-1.956 2.412-3.492 3.132l5.364 8.316zm-9.792-11.952h5.256c1.584 0 2.796-.36 3.636-1.08.864-.744 1.296-1.824 1.296-3.24 0-1.392-.432-2.436-1.296-3.132-.84-.72-2.052-1.08-3.636-1.08h-5.256zm38.975 11.952-1.98-4.896h-11.664l-1.98 4.896h-5.868l10.944-25.2h5.868l10.764 25.2zm-11.772-9.468h7.956l-3.96-9.792zm38.06-7.848c-.864-1.032-1.884-1.836-3.06-2.412-1.152-.6-2.316-.9-3.492-.9-1.416 0-2.712.348-3.888 1.044s-2.1 1.644-2.772 2.844-1.008 2.532-1.008 3.996.336 2.808 1.008 4.032c.672 1.2 1.596 2.16 2.772 2.88 1.176.696 2.472 1.044 3.888 1.044 1.128 0 2.268-.264 3.42-.792 1.176-.552 2.22-1.284 3.132-2.196l3.348 3.636c-1.344 1.392-2.928 2.496-4.752 3.312-1.8.816-3.612 1.224-5.436 1.224-2.472 0-4.716-.564-6.732-1.692-2.016-1.152-3.6-2.724-4.752-4.716s-1.728-4.212-1.728-6.66c0-2.424.588-4.62 1.764-6.588s2.784-3.516 4.824-4.644c2.064-1.128 4.344-1.692 6.84-1.692 1.824 0 3.624.384 5.4 1.152 1.776.744 3.288 1.764 4.536 3.06zm6.744-7.884h19.188v4.716h-13.5v5.472h12.132v4.716h-12.132v5.58h13.896v4.716h-19.584z" fill-opacity=".4"/></g></svg>

<svg width="161" height="50" viewBox="0 0 322 100" fill="none" xmlns="http://www.w3.org/2000/svg">
<path fill-rule="evenodd" clip-rule="evenodd" d="M48.1066 81.3333C48.564 81.3333 49.0188 81.3224 49.4708 81.3007L49.4719 86.7337C52.4942 87.4125 54.7503 90.0873 54.7503 93.2836C54.7503 96.993 51.7117 100 47.9634 100C44.215 100 41.1764 96.993 41.1764 93.2836C41.1764 90.0873 43.4326 87.4125 46.4549 86.7337L46.4552 81.2854C47.0016 81.3172 47.5522 81.3333 48.1066 81.3333ZM35.4975 78.3404L32.7243 83.1429C33.9388 84.5539 34.1999 86.6197 33.2251 88.308C31.9887 90.4497 29.232 91.1729 27.0679 89.9235C24.9038 88.674 24.1518 85.925 25.3882 83.7834C26.363 82.0951 28.2826 81.2882 30.1118 81.6345L32.8816 76.8362C33.7234 77.3827 34.5965 77.8851 35.4975 78.3404ZM24.8039 68.8623L16.9362 73.4045C17.8595 76.3613 16.6711 79.6527 13.903 81.2508C10.6906 83.1055 6.56715 81.9775 4.69298 78.7313C2.81882 75.4852 3.90368 71.3502 7.11609 69.4955C9.88418 67.8973 13.3287 68.5138 15.4277 70.7918L23.2649 66.2645C23.732 67.16 24.2461 68.027 24.8039 68.8623ZM10.6628 49.2067C12.6124 49.2067 14.2709 50.4657 14.8856 52.223L20.1282 52.2236C20.1138 52.5917 20.1066 52.9617 20.1066 53.3333C20.1066 53.974 20.1281 54.6096 20.1704 55.2395L14.8856 55.2397C14.2709 56.997 12.6124 58.256 10.6628 58.256C8.18993 58.256 6.18523 56.2302 6.18523 53.7313C6.18523 51.2325 8.18993 49.2067 10.6628 49.2067ZM10.1287 25.4656C12.8968 27.0638 14.0852 30.3551 13.1619 33.3119L23.788 39.4454C23.2891 40.3172 22.8357 41.2183 22.4311 42.1456L11.6534 35.9246C9.55438 38.2026 6.10982 38.8191 3.34174 37.221C0.129327 35.3663 -0.955537 31.2312 0.918628 27.9851C2.79279 24.7389 6.91628 23.6109 10.1287 25.4656V25.4656ZM68.8589 17.5392C71.023 18.7887 71.775 21.5377 70.5385 23.6793C69.5638 25.3676 67.6442 26.1745 65.815 25.8282L63.4572 29.9125C62.6181 29.3614 61.7476 28.8542 60.849 28.3942L63.2024 24.3198C61.9879 22.9088 61.7269 20.843 62.7016 19.1546C63.9381 17.013 66.6948 16.2898 68.8589 17.5392ZM34.735 20.6483C35.7418 22.392 35.4303 24.5385 34.1116 25.9502L35.4869 28.3317C34.5863 28.7872 33.7137 29.2899 32.8722 29.8365L31.4377 27.3527C29.665 27.6131 27.8403 26.8047 26.8981 25.1729C25.6617 23.0313 26.4137 20.2823 28.5778 19.0328C30.7419 17.7834 33.4986 18.5066 34.735 20.6483V20.6483ZM47.9634 0C51.7117 0 54.7503 3.00704 54.7503 6.71642C54.7503 9.91272 52.4942 12.5875 49.4719 13.2663L49.4708 25.366C49.0188 25.3443 48.564 25.3333 48.1066 25.3333C47.5522 25.3333 47.0016 25.3494 46.4552 25.3812L46.4549 13.2663C43.4326 12.5875 41.1764 9.91272 41.1764 6.71642C41.1764 3.00704 44.215 0 47.9634 0Z" fill="white"/>
<path d="M54.8799 43.0173C54.0159 41.9853 52.9959 41.1813 51.8199 40.6053C50.6679 40.0053 49.5039 39.7053 48.3279 39.7053C46.9119 39.7053 45.6159 40.0533 44.4399 40.7493C43.2639 41.4453 42.3399 42.3933 41.6679 43.5933C40.9959 44.7933 40.6599 46.1253 40.6599 47.5893C40.6599 49.0533 40.9959 50.3973 41.6679 51.6213C42.3399 52.8213 43.2639 53.7813 44.4399 54.5013C45.6159 55.1973 46.9119 55.5453 48.3279 55.5453C49.4559 55.5453 50.5959 55.2813 51.7479 54.7533C52.9239 54.2013 53.9679 53.4693 54.8799 52.5573L58.2279 56.1933C56.8839 57.5853 55.2999 58.6893 53.4759 59.5053C51.6759 60.3213 49.8639 60.7293 48.0399 60.7293C45.5679 60.7293 43.3239 60.1653 41.3079 59.0373C39.2919 57.8853 37.7079 56.3133 36.5559 54.3213C35.4039 52.3293 34.8279 50.1093 34.8279 47.6613C34.8279 45.2373 35.4159 43.0413 36.5919 41.0733C37.7679 39.1053 39.3759 37.5573 41.4159 36.4293C43.4799 35.3013 45.7599 34.7373 48.2559 34.7373C50.0799 34.7373 51.8799 35.1213 53.6559 35.8893C55.4319 36.6333 56.9439 37.6533 58.1919 38.9493L54.8799 43.0173ZM72.903 34.7373C75.423 34.7373 77.715 35.3013 79.779 36.4293C81.843 37.5573 83.463 39.1173 84.639 41.1093C85.839 43.0773 86.439 45.2733 86.439 47.6973C86.439 50.1213 85.839 52.3293 84.639 54.3213C83.463 56.3133 81.843 57.8853 79.779 59.0373C77.715 60.1653 75.423 60.7293 72.903 60.7293C70.383 60.7293 68.091 60.1653 66.027 59.0373C63.963 57.8853 62.331 56.3253 61.131 54.3573C59.955 52.3653 59.367 50.1453 59.367 47.6973C59.367 45.2733 59.955 43.0773 61.131 41.1093C62.331 39.1173 63.951 37.5573 65.991 36.4293C68.055 35.3013 70.359 34.7373 72.903 34.7373ZM72.975 39.7053C71.583 39.7053 70.287 40.0653 69.087 40.7853C67.887 41.4813 66.939 42.4413 66.243 43.6653C65.547 44.8893 65.199 46.2333 65.199 47.6973C65.199 49.1853 65.547 50.5413 66.243 51.7653C66.963 52.9893 67.911 53.9613 69.087 54.6813C70.287 55.4013 71.583 55.7613 72.975 55.7613C74.367 55.7613 75.639 55.4133 76.791 54.7173C77.967 53.9973 78.891 53.0253 79.563 51.8013C80.259 50.5533 80.607 49.1853 80.607 47.6973C80.607 46.2333 80.259 44.8893 79.563 43.6653C78.891 42.4413 77.967 41.4813 76.791 40.7853C75.639 40.0653 74.367 39.7053 72.975 39.7053ZM105.651 60.3333L101.655 53.1333H101.115H95.8589V60.3333H90.1709V35.1333H101.115C104.403 35.1333 106.947 35.9013 108.747 37.4373C110.547 38.9493 111.447 41.0973 111.447 43.8813C111.447 45.8253 111.039 47.4933 110.223 48.8853C109.431 50.2533 108.267 51.2973 106.731 52.0173L112.095 60.3333H105.651ZM95.8589 48.3813H101.115C102.699 48.3813 103.911 48.0213 104.751 47.3013C105.615 46.5573 106.047 45.4773 106.047 44.0613C106.047 42.6693 105.615 41.6253 104.751 40.9293C103.911 40.2093 102.699 39.8493 101.115 39.8493H95.8589V48.3813ZM127.958 34.7373C130.478 34.7373 132.77 35.3013 134.834 36.4293C136.898 37.5573 138.518 39.1173 139.694 41.1093C140.894 43.0773 141.494 45.2733 141.494 47.6973C141.494 50.1213 140.894 52.3293 139.694 54.3213C138.518 56.3133 136.898 57.8853 134.834 59.0373C132.77 60.1653 130.478 60.7293 127.958 60.7293C125.438 60.7293 123.146 60.1653 121.082 59.0373C119.018 57.8853 117.386 56.3253 116.186 54.3573C115.01 52.3653 114.422 50.1453 114.422 47.6973C114.422 45.2733 115.01 43.0773 116.186 41.1093C117.386 39.1173 119.006 37.5573 121.046 36.4293C123.11 35.3013 125.414 34.7373 127.958 34.7373ZM128.03 39.7053C126.638 39.7053 125.342 40.0653 124.142 40.7853C122.942 41.4813 121.994 42.4413 121.298 43.6653C120.602 44.8893 120.254 46.2333 120.254 47.6973C120.254 49.1853 120.602 50.5413 121.298 51.7653C122.018 52.9893 122.966 53.9613 124.142 54.6813C125.342 55.4013 126.638 55.7613 128.03 55.7613C129.422 55.7613 130.694 55.4133 131.846 54.7173C133.022 53.9973 133.946 53.0253 134.618 51.8013C135.314 50.5533 135.662 49.1853 135.662 47.6973C135.662 46.2333 135.314 44.8893 134.618 43.6653C133.946 42.4413 133.022 41.4813 131.846 40.7853C130.694 40.0653 129.422 39.7053 128.03 39.7053ZM162.65 35.1333H168.05V60.3333H162.866L150.662 44.1333V60.3333H145.226V35.1333H150.41L162.65 51.4053V35.1333ZM192.209 60.3333L190.229 55.4373H178.565L176.585 60.3333H170.717L181.661 35.1333H187.529L198.293 60.3333H192.209ZM180.437 50.8653H188.393L184.433 41.0733L180.437 50.8653Z" fill="white"/>
<path d="M198.429 35.1333H219.489V39.9573H211.785V60.3333H206.097V39.9573H198.429V35.1333ZM238.014 60.3333L234.018 53.1333H233.478H228.222V60.3333H222.534V35.1333H233.478C236.766 35.1333 239.31 35.9013 241.11 37.4373C242.91 38.9493 243.81 41.0973 243.81 43.8813C243.81 45.8253 243.402 47.4933 242.586 48.8853C241.794 50.2533 240.63 51.2973 239.094 52.0173L244.458 60.3333H238.014ZM228.222 48.3813H233.478C235.062 48.3813 236.274 48.0213 237.114 47.3013C237.978 46.5573 238.41 45.4773 238.41 44.0613C238.41 42.6693 237.978 41.6253 237.114 40.9293C236.274 40.2093 235.062 39.8493 233.478 39.8493H228.222V48.3813ZM267.197 60.3333L265.217 55.4373H253.553L251.573 60.3333H245.705L256.649 35.1333H262.517L273.281 60.3333H267.197ZM255.425 50.8653H263.381L259.421 41.0733L255.425 50.8653ZM293.485 43.0173C292.621 41.9853 291.601 41.1813 290.425 40.6053C289.273 40.0053 288.109 39.7053 286.933 39.7053C285.517 39.7053 284.221 40.0533 283.045 40.7493C281.869 41.4453 280.945 42.3933 280.273 43.5933C279.601 44.7933 279.265 46.1253 279.265 47.5893C279.265 49.0533 279.601 50.3973 280.273 51.6213C280.945 52.8213 281.869 53.7813 283.045 54.5013C284.221 55.1973 285.517 55.5453 286.933 55.5453C288.061 55.5453 289.201 55.2813 290.353 54.7533C291.529 54.2013 292.573 53.4693 293.485 52.5573L296.833 56.1933C295.489 57.5853 293.905 58.6893 292.081 59.5053C290.281 60.3213 288.469 60.7293 286.645 60.7293C284.173 60.7293 281.929 60.1653 279.913 59.0373C277.897 57.8853 276.313 56.3133 275.161 54.3213C274.009 52.3293 273.433 50.1093 273.433 47.6613C273.433 45.2373 274.021 43.0413 275.197 41.0733C276.373 39.1053 277.981 37.5573 280.021 36.4293C282.085 35.3013 284.365 34.7373 286.861 34.7373C288.685 34.7373 290.485 35.1213 292.261 35.8893C294.037 36.6333 295.549 37.6533 296.797 38.9493L293.485 43.0173ZM300.229 35.1333H319.417V39.8493H305.917V45.3213H318.049V50.0373H305.917V55.6173H319.813V60.3333H300.229V35.1333Z" fill="white" fill-opacity="0.4"/>
</svg>
